web/packages/design/src/ResourceIcon/assets/ipstack.svg

<svg width="72" height="72" viewBox="0 0 72 72" fill="none" xmlns="http://www.w3.org/2000/svg">
<g clip-path="url(#clip0_16904_17285)">
<path d="M16.0238 17.546L2.60295 22.5344C6.24772 13.5151 13.3674 6.33368 22.3712 2.62713L21.182 11.0132C18.2322 11.4302 16.0238 13.9476 16.0238 16.9283C16.0083 17.129 15.9774 17.3452 16.0238 17.546ZM24.5025 41.2834L0.224572 39.9089C1.08943 47.5537 4.36356 54.7197 9.58362 60.3876C10.5411 58.21 12.6879 56.82 15.0508 56.82C15.6531 56.82 16.24 56.9127 16.8114 57.0826L25.599 43.044C25.1203 42.5344 24.7496 41.932 24.5025 41.2834ZM26.3558 34.2718L22.2477 22.936H22.0778C20.4716 22.936 18.9272 22.2719 17.7998 21.129L1.07399 27.3529C0.394455 30.1483 0.0546875 33.0054 0.0546875 35.878L24.3635 37.2525C24.6878 36.0788 25.3828 35.044 26.3403 34.2873L26.3558 34.2718ZM29.9697 44.9591C29.7071 44.9591 29.4446 44.9127 29.182 44.9127L19.962 59.6463C20.6261 60.6347 20.9813 61.8084 20.9813 62.9976C20.9813 64.7737 20.1627 66.4571 18.7728 67.5845C24.0392 70.4725 29.9388 71.986 35.9465 72.0015C36.7341 72.0015 37.5835 71.9551 38.3712 71.9088L29.9851 44.9436L29.9697 44.9591ZM47.9773 6.96689C47.9619 5.37616 48.5951 3.84721 49.738 2.73524C45.3828 0.91285 40.6878 -0.0137892 35.9619 0.00165475C32.7959 0.00165475 29.6299 0.418641 26.5565 1.23717L25.0585 11.8781C25.8461 12.3568 26.5102 13.0055 27.0044 13.7777L47.9619 7.24488V6.98233L47.9773 6.96689ZM63.9927 43.9398C63.9927 46.8896 61.8306 49.4069 58.9117 49.8548L54.4947 66.7968C64.626 60.7119 71.1124 50.0401 71.8846 38.2409L63.9464 43.1367C63.9464 43.4456 63.9927 43.6618 63.9927 43.9243V43.9398ZM59.6684 8.8665C59.1897 10.3028 58.1858 11.5074 56.8422 12.2178L59.6684 38.1637C60.6105 38.4263 61.4754 38.905 62.1858 39.5691L71.9464 33.5151C71.2514 24.0016 66.8499 15.1368 59.6839 8.85105L59.6684 8.8665ZM55.653 38.3799L52.8731 12.8356C51.5758 12.5885 50.402 11.909 49.5217 10.936L27.9002 17.685C27.7303 19.1367 27.0199 20.4804 25.9079 21.4379L30.0932 32.9591C33.1202 33.0054 35.6222 35.2911 35.9619 38.3027L52.5951 41.2525C53.2283 39.9707 54.3094 38.9514 55.6376 38.3799H55.653ZM52.1627 45.2679L35.0353 42.2255C34.6801 42.7506 34.2476 43.2293 33.7534 43.6309L42.4484 71.3374C44.9503 70.8895 47.3905 70.1636 49.738 69.1752L54.9889 49.0517C53.5526 48.2486 52.5179 46.8741 52.1627 45.2525V45.2679ZM12.0083 62.7814C13.2284 63.8779 14.5257 64.8818 15.8848 65.7775C17.1357 65.376 17.9851 64.2177 18.0006 62.905C18.0006 61.2679 16.6878 59.9243 15.0508 59.9088C15.0353 59.9088 15.0199 59.9088 15.0045 59.9088C13.4137 59.9397 12.1164 61.1907 12.0083 62.7814ZM32.9658 38.9514C32.9658 37.2989 31.6222 35.9552 29.9697 35.9552C28.3172 35.9552 26.9735 37.2989 26.9735 38.9514C26.9735 40.6039 28.3172 41.9475 29.9697 41.9475C31.6067 41.9475 32.9504 40.6348 32.9658 38.9977C32.9658 38.9822 32.9658 38.9668 32.9658 38.9514ZM21.9851 13.9785C20.3326 13.9785 18.989 15.3221 18.989 16.9746C18.989 18.6271 20.3326 19.9707 21.9851 19.9707C23.6376 19.9707 24.9813 18.6271 24.9813 16.9746C24.9813 15.3375 23.6685 13.9939 22.0315 13.9785C22.016 13.9785 22.0006 13.9785 21.9851 13.9785ZM58.0005 46.9359C59.653 46.9359 60.9966 45.5923 60.9966 43.9398C60.9966 42.2873 59.653 40.9436 58.0005 40.9436C56.348 40.9436 55.0043 42.2873 55.0043 43.9398C55.0043 45.5768 56.3171 46.9205 57.9542 46.9359C57.9696 46.9359 57.985 46.9359 58.0005 46.9359ZM56.9812 6.6889C55.6839 5.76226 54.3248 4.91284 52.9194 4.17153C51.375 4.78929 50.6337 6.51901 51.236 8.06341C51.8538 9.60781 53.5835 10.3491 55.1279 9.7468C56.2708 9.29893 57.0121 8.18696 57.0121 6.95144C56.9812 6.87422 56.9657 6.78156 56.9657 6.6889H56.9812Z" fill="#E97C2A"/>
</g>
<defs>
<clipPath id="clip0_16904_17285">
<rect width="72" height="72" fill="white" transform="translate(0 0.00146484)"/>
</clipPath>
</defs>
</svg>

<svg xmlns="http://www.w3.org/2000/svg" width="72" height="72" fill="none" viewBox="0 0 72 72"><g clip-path="url(#a)"><path fill="#e97c2a" d="M16.024 17.546 2.603 22.534A36.18 36.18 0 0 1 22.37 2.627l-1.189 8.386c-2.95.417-5.158 2.935-5.158 5.915-.016.201-.047.417 0 .618m8.479 23.737L.225 39.91a36.23 36.23 0 0 0 9.359 20.479 5.97 5.97 0 0 1 5.467-3.568c.602 0 1.189.093 1.76.263l8.789-14.04a5.4 5.4 0 0 1-1.096-1.76m1.853-7.011-4.108-11.336h-.17a6.03 6.03 0 0 1-4.278-1.807L1.074 27.353a36 36 0 0 0-1.02 8.525l24.31 1.374a5.73 5.73 0 0 1 1.976-2.965zm3.614 10.687c-.263 0-.525-.046-.788-.046l-9.22 14.733a6.03 6.03 0 0 1 1.02 3.352 5.92 5.92 0 0 1-2.21 4.587A35.9 35.9 0 0 0 35.948 72c.787 0 1.636-.046 2.424-.092l-8.386-26.965zM47.977 6.967a5.82 5.82 0 0 1 1.761-4.232A35.4 35.4 0 0 0 35.962.002c-3.166 0-6.332.417-9.406 1.235l-1.498 10.641a6 6 0 0 1 1.946 1.9l20.958-6.533v-.263zM63.993 43.94a5.99 5.99 0 0 1-5.081 5.915l-4.417 16.942c10.131-6.085 16.617-16.757 17.39-28.556l-7.939 4.896c0 .309.047.525.047.787zM59.668 8.867a5.9 5.9 0 0 1-2.826 3.35l2.826 25.947a6.1 6.1 0 0 1 2.518 1.405l9.76-6.054A36.33 36.33 0 0 0 59.684 8.851zM55.653 38.38l-2.78-25.544a6.07 6.07 0 0 1-3.351-1.9L27.9 17.685a5.86 5.86 0 0 1-1.992 3.753l4.185 11.521a6 6 0 0 1 5.869 5.344l16.633 2.95a6.06 6.06 0 0 1 3.043-2.873zm-3.49 6.888-17.128-3.043a6.5 6.5 0 0 1-1.282 1.406l8.695 27.706a34.4 34.4 0 0 0 7.29-2.162l5.25-20.123a5.77 5.77 0 0 1-2.825-3.8zM12.008 62.78a33 33 0 0 0 3.877 2.997A3.05 3.05 0 0 0 18 62.905a2.99 2.99 0 0 0-2.95-2.996h-.046a3.07 3.07 0 0 0-2.997 2.872m20.958-23.83a3 3 0 0 0-2.996-2.996 3 3 0 0 0-2.996 2.996 3 3 0 0 0 2.996 2.996 2.99 2.99 0 0 0 2.996-2.95zM21.986 13.98a3 3 0 0 0-2.997 2.996 3 3 0 0 0 2.996 2.996 3 3 0 0 0 2.996-2.996 2.99 2.99 0 0 0-2.95-2.997zM58 46.936a3 3 0 0 0 2.996-2.996A3 3 0 0 0 58 40.944a3 3 0 0 0-2.997 2.996 2.99 2.99 0 0 0 2.95 2.996zM56.98 6.689a35.5 35.5 0 0 0-4.062-2.517 3 3 0 0 0-1.683 3.891 3 3 0 0 0 3.892 1.684 2.99 2.99 0 0 0 1.884-2.796.7.7 0 0 1-.046-.262z"/></g><defs><clipPath id="a"><path fill="#fff" d="M0 .001h72v72H0z"/></clipPath></defs></svg>
